X:1226
T:Carrigaline
M:C|
L:1/8
R:Reel
B:O'Neill's 1226
N:Collected by F. O'Neill
Z:Transcribed by Trish O'Neil
K:C
3G,A,B,|CB,CD EGG2|Adde dcAB|dcBcA GEcA|GFED ECA,B,|
CB,CD EGG2|Adde dcAB|dcBcA GEcA|GED"End"E C2z2||
Tc2ec gcec|agfd BcdB|Tc2ec gcec|agfd BGAB|
Tc2ec gcec|agfd BcdB|cBcA GEcA|GEDE "D.C."C2||
